svg/aws-sqs.svg

<?xml version="1.0" encoding="UTF-8"?>
<svg xmlns="http://www.w3.org/2000/svg" xmlns:xlink="http://www.w3.org/1999/xlink" width="32" height="32" viewBox="0 0 32 32">
<path fill-rule="nonzero" fill="rgb(90.588236%, 8.235294%, 48.235294%)" fill-opacity="1" d="M 0.203125 0.203125 L 31.796875 0.203125 L 31.796875 31.796875 L 0.203125 31.796875 Z M 0.203125 0.203125 "/>
<path fill-rule="nonzero" fill="rgb(100%, 100%, 100%)" fill-opacity="1" d="M 11 17.632812 L 12.335938 16.320312 C 12.417969 16.234375 12.464844 16.125 12.464844 16.007812 C 12.460938 15.890625 12.414062 15.777344 12.335938 15.695312 L 11.003906 14.367188 L 10.378906 14.988281 L 10.945312 15.558594 L 8.917969 15.558594 L 8.917969 16.441406 L 10.953125 16.441406 L 10.378906 17.007812 Z M 21.148438 17.671875 L 22.921875 16.351562 C 23.03125 16.269531 23.097656 16.140625 23.101562 16 C 23.101562 15.863281 23.03125 15.730469 22.921875 15.648438 L 21.148438 14.328125 L 20.617188 15.03125 L 21.328125 15.558594 L 19.550781 15.558594 L 19.550781 16.441406 L 21.328125 16.441406 L 20.617188 16.96875 Z M 13.878906 16 C 13.878906 16.9375 13.714844 17.816406 13.414062 18.585938 C 14.242188 18.273438 15.121094 18.117188 16.007812 18.121094 C 16.90625 18.121094 17.804688 18.277344 18.605469 18.585938 C 18.300781 17.816406 18.140625 16.9375 18.140625 16 C 18.140625 15.0625 18.300781 14.183594 18.605469 13.414062 C 17.007812 14.027344 15.007812 14.027344 13.414062 13.414062 C 13.714844 14.183594 13.878906 15.0625 13.878906 16 M 11.707031 20.273438 C 11.535156 20.101562 11.535156 19.820312 11.707031 19.648438 C 12.511719 18.851562 12.992188 17.488281 12.992188 16 C 12.992188 14.511719 12.511719 13.148438 11.707031 12.351562 C 11.625 12.269531 11.578125 12.15625 11.578125 12.039062 C 11.578125 11.921875 11.625 11.808594 11.707031 11.726562 C 11.789062 11.640625 11.902344 11.59375 12.023438 11.59375 C 12.140625 11.59375 12.253906 11.644531 12.335938 11.726562 C 14.050781 13.433594 17.964844 13.433594 19.683594 11.726562 C 19.765625 11.644531 19.878906 11.59375 19.996094 11.59375 C 20.113281 11.59375 20.226562 11.644531 20.308594 11.726562 C 20.394531 11.808594 20.441406 11.921875 20.441406 12.039062 C 20.441406 12.148438 20.394531 12.261719 20.308594 12.351562 C 19.503906 13.148438 19.027344 14.511719 19.027344 16 C 19.027344 17.488281 19.503906 18.851562 20.308594 19.648438 C 20.390625 19.730469 20.4375 19.84375 20.441406 19.960938 C 20.441406 20.078125 20.394531 20.191406 20.308594 20.273438 C 20.226562 20.355469 20.113281 20.402344 19.996094 20.402344 C 19.878906 20.402344 19.765625 20.355469 19.683594 20.273438 C 17.964844 18.566406 14.050781 18.566406 12.335938 20.273438 C 12.253906 20.359375 12.140625 20.40625 12.023438 20.40625 C 11.902344 20.40625 11.789062 20.359375 11.707031 20.273438 M 27.515625 16.003906 C 27.515625 15.589844 27.355469 15.207031 27.0625 14.914062 C 26.773438 14.625 26.378906 14.464844 25.96875 14.464844 C 25.117188 14.460938 24.425781 15.152344 24.421875 16.003906 C 24.421875 16.410156 24.585938 16.800781 24.875 17.089844 C 25.480469 17.6875 26.457031 17.6875 27.0625 17.089844 C 27.355469 16.796875 27.515625 16.414062 27.515625 16.003906 M 27.691406 17.710938 C 27.234375 18.164062 26.613281 18.417969 25.96875 18.417969 C 25.324219 18.417969 24.703125 18.164062 24.246094 17.710938 C 23.792969 17.257812 23.535156 16.644531 23.535156 16.003906 C 23.535156 15.359375 23.792969 14.746094 24.246094 14.292969 C 25.203125 13.351562 26.734375 13.351562 27.691406 14.292969 C 28.144531 14.746094 28.402344 15.359375 28.402344 16.003906 C 28.402344 16.644531 28.144531 17.257812 27.691406 17.710938 M 7.574219 16.011719 C 7.578125 15.601562 7.414062 15.210938 7.121094 14.925781 C 6.832031 14.636719 6.441406 14.476562 6.03125 14.476562 C 5.621094 14.472656 5.230469 14.632812 4.9375 14.921875 C 4.648438 15.210938 4.484375 15.601562 4.484375 16.011719 C 4.484375 16.421875 4.648438 16.8125 4.9375 17.097656 C 5.519531 17.675781 6.539062 17.675781 7.121094 17.097656 C 7.417969 16.804688 7.574219 16.421875 7.574219 16.011719 M 7.75 17.722656 C 7.292969 18.175781 6.675781 18.429688 6.03125 18.425781 C 5.386719 18.425781 4.769531 18.175781 4.308594 17.722656 C 3.855469 17.269531 3.597656 16.65625 3.597656 16.015625 C 3.597656 15.371094 3.855469 14.757812 4.308594 14.304688 C 5.261719 13.359375 6.796875 13.359375 7.75 14.304688 C 8.207031 14.757812 8.460938 15.371094 8.460938 16.015625 C 8.460938 16.65625 8.207031 17.269531 7.75 17.722656 M 22.597656 22.578125 C 20.839844 24.332031 18.457031 25.3125 15.972656 25.304688 C 13.488281 25.3125 11.105469 24.332031 9.347656 22.578125 C 8.132812 21.375 7.464844 19.933594 7.121094 18.9375 L 6.28125 19.226562 C 6.660156 20.308594 7.386719 21.878906 8.722656 23.203125 C 10.648438 25.121094 13.257812 26.195312 15.972656 26.1875 C 18.714844 26.1875 21.285156 25.125 23.222656 23.203125 C 24.351562 22.082031 25.207031 20.722656 25.734375 19.222656 L 24.894531 18.941406 C 24.414062 20.3125 23.628906 21.554688 22.597656 22.578125 M 7.121094 13.0625 L 6.28125 12.773438 C 6.820312 11.242188 7.6875 9.828125 8.726562 8.792969 C 10.648438 6.878906 13.257812 5.804688 15.972656 5.8125 C 18.710938 5.8125 21.285156 6.875 23.222656 8.792969 C 24.339844 9.921875 25.195312 11.277344 25.734375 12.773438 L 24.894531 13.0625 C 24.402344 11.695312 23.617188 10.449219 22.59375 9.417969 C 20.835938 7.664062 18.453125 6.683594 15.972656 6.695312 C 13.472656 6.695312 11.117188 7.660156 9.351562 9.417969 C 8.40625 10.359375 7.613281 11.652344 7.121094 13.0625 "/>
</svg>

<svg role="img" viewBox="0 0 32 32" xmlns="http://www.w3.org/2000/svg"><path d="M.203.203h31.594v31.594H.203Zm0 0" fill="rgb(90.588236%, 8.235294%, 48.235294%)"/><path d="m11 17.633 1.336-1.313a.45.45 0 0 0 .129-.312.48.48 0 0 0-.13-.313l-1.331-1.328-.625.621.566.57H8.918v.883h2.035l-.574.567Zm10.148.039 1.774-1.32a.45.45 0 0 0 .18-.352c0-.137-.07-.27-.18-.352l-1.774-1.32-.53.703.71.528h-1.777v.882h1.777l-.71.528ZM13.878 16c0 .938-.163 1.816-.464 2.586a7.3 7.3 0 0 1 2.594-.465c.898 0 1.797.156 2.597.465-.304-.77-.464-1.648-.464-2.586s.16-1.816.464-2.586c-1.597.613-3.597.613-5.19 0 .3.77.464 1.649.464 2.586m-2.172 4.273a.443.443 0 0 1 0-.625c.805-.796 1.285-2.16 1.285-3.648s-.48-2.852-1.285-3.648a.444.444 0 0 1 .629-.625c1.715 1.707 5.629 1.707 7.348 0a.45.45 0 0 1 .312-.133c.117 0 .23.05.313.133a.43.43 0 0 1 0 .625c-.805.796-1.282 2.16-1.282 3.648s.477 2.852 1.282 3.648a.43.43 0 0 1 0 .625.444.444 0 0 1-.625 0c-1.72-1.707-5.633-1.707-7.348 0a.43.43 0 0 1-.313.133.43.43 0 0 1-.316-.133m15.809-4.27c0-.413-.16-.796-.453-1.089a1.55 1.55 0 0 0-1.094-.45 1.544 1.544 0 0 0-1.547 1.54c0 .406.164.797.453 1.086a1.56 1.56 0 0 0 2.188 0c.292-.293.453-.676.453-1.086m.175 1.707a2.45 2.45 0 0 1-3.445 0 2.42 2.42 0 0 1-.71-1.707c0-.645.257-1.258.71-1.711a2.455 2.455 0 0 1 3.445 0 2.413 2.413 0 0 1 .001 3.418m-20.118-1.7c.004-.41-.16-.8-.453-1.085-.289-.29-.68-.45-1.09-.45a1.532 1.532 0 0 0-1.093 2.622c.582.578 1.601.578 2.183 0 .297-.293.453-.676.453-1.086m.176 1.71a2.42 2.42 0 0 1-1.719.704c-.644 0-1.261-.25-1.722-.703a2.42 2.42 0 0 1-.711-1.707c0-.645.257-1.258.71-1.711a2.443 2.443 0 0 1 3.442 0 2.4 2.4 0 0 1 .71 1.71 2.4 2.4 0 0 1-.71 1.708m14.848 4.855a9.34 9.34 0 0 1-6.625 2.727 9.34 9.34 0 0 1-6.625-2.727c-1.215-1.203-1.883-2.644-2.227-3.64l-.84.289c.38 1.082 1.106 2.652 2.442 3.976a10.24 10.24 0 0 0 7.25 2.985c2.742 0 5.312-1.063 7.25-2.985a10.5 10.5 0 0 0 2.511-3.98l-.84-.282a9.6 9.6 0 0 1-2.296 3.637M7.12 13.063l-.84-.29c.54-1.53 1.407-2.945 2.446-3.98a10.23 10.23 0 0 1 7.246-2.98c2.738 0 5.312 1.062 7.25 2.98a10.9 10.9 0 0 1 2.511 3.98l-.84.29a10 10 0 0 0-2.3-3.645 9.3 9.3 0 0 0-6.621-2.723c-2.5 0-4.856.965-6.621 2.723-.946.941-1.739 2.234-2.23 3.645" fill="rgb(100%, 100%, 100%)"/></svg>
